X: 26635
T: Mickey's Fancy
R: jig
M: 6/8
K: Dmajor
DED AFA|Bcd AFD|Bcd dAF|EFD EFE|
DED AFA|Bcd AFD|Bcd dAF|EFED3:|
|:dcd fed|cBA GFE|DED AFA|GAB ABc|
dcd fed|cBA GFE|DFA Ged|cBcd3:|

